plasma/desktoptheme/ChromeOS/icons/input.svg

<?xml version="1.0" encoding="UTF-8"?>
<svg id="svg" version="1.1" viewBox="0 0 22 22" xmlns="http://www.w3.org/2000/svg" xmlns:cc="http://creativecommons.org/ns#" xmlns:dc="http://purl.org/dc/elements/1.1/" xmlns:rdf="http://www.w3.org/1999/02/22-rdf-syntax-ns#">
 <metadata>
  <rdf:RDF>
   <cc:Work rdf:about="">
    <dc:format>image/svg+xml</dc:format>
    <dc:type rdf:resource="http://purl.org/dc/dcmitype/StillImage"/>
    <dc:title/>
   </cc:Work>
  </rdf:RDF>
 </metadata>
 <defs>
  <style id="current-color-scheme" type="text/css">.ColorScheme-Text { color:#dedede; } .ColorScheme-Highlight { color:#5294e2; } .ColorScheme-ButtonBackground { color:#dedede; }</style>
 </defs>
 <rect width="22" height="22" rx="0" ry="0" fill="#eff0f1" fill-opacity=".0039216" opacity=".01"/>
 <g id="input-mouse-battery" transform="translate(28)">
  <rect width="22" height="22" opacity="0"/>
  <path class="ColorScheme-Text" d="m10 3c-2.8108 0.25154-5 2.6018-5 5.4844v0.5h5v-5.9844zm1 0v5.9844h5v-0.5c0-2.8825-2.1892-5.2328-5-5.4844zm-6 6.9863v3.5059c0 3.0515 2.453 5.5078 5.5 5.5078s5.5-2.4563 5.5-5.5078v-3.5059h-11zm6 1.0137v3h2l-3 4v-3h-2l3-4z" enable-background="new" fill="currentColor"/>
 </g>
 <g id="22-22-input-keyboard-battery">
  <rect width="22" height="22" opacity="0"/>
  <path class="ColorScheme-Text" d="m5 5c-1.108 0-2 0.892-2 2v8c0 1.108 0.892 2 2 2h12c1.108 0 2-0.892 2-2v-8c0-1.108-0.892-2-2-2h-12zm-1 2h2v2h-2v-2zm3 0h2v2h-2v-2zm3 0h2v2h-2v-2zm3 0h2v2h-2v-2zm3 0h2v2h-2v3h2l-3 4v-3h-2l3-4v-2zm-12 3h2v2h-2v-2zm3 0h2v2h-2v-2zm3 0h2v2h-2v-2zm-5 3h7v2h-7v-2z" fill="currentColor"/>
 </g>
 <g id="22-22-input-keyboard-brightness" transform="translate(-28)">
  <rect width="22" height="22" opacity="0"/>
  <path class="ColorScheme-Text" d="m5 5c-1.108 0-2 0.892-2 2v8c0 1.108 0.892 2 2 2h12c1.108 0 2-0.892 2-2v-8c0-1.108-0.892-2-2-2zm-1 2h2v2h-2zm3 0h2v2h-2zm3 0h2v2h-2zm3 0h2v2h-2zm3 0h2v2h-2zm-12 3h2v2h-2zm3 0h2v2h-2zm3 0h2v2h-2zm5.5 0c1.3807 0 2.5 1.1193 2.5 2.5s-1.1193 2.5-2.5 2.5-2.5-1.1193-2.5-2.5 1.1193-2.5 2.5-2.5zm-0.5 1v3c0.82843 0 2 0 2-1.5s-1.1716-1.5-2-1.5zm-10 2h7v2h-7z" fill="currentColor"/>
 </g>
 <g id="input-keyboard-brightness">
  <rect x="-28" y="-39" width="32" height="32" opacity="0"/>
  <path class="ColorScheme-Text" d="m-12.5-35v1.041a3 3 0 0 0-1.2344 0.51758l-0.74023-0.74024-0.70703 0.70703 0.73828 0.73828a3 3 0 0 0-0.50977 1.2363h-1.0469v1h1.041a3 3 0 0 0 0.51758 1.2344l-0.74024 0.74023 0.70703 0.70703 0.73828-0.73828a3 3 0 0 0 1.2363 0.50977v1.0469h-8.5c-1.662 0-3 1.1887-3 2.666v10.668c0 1.4773 1.338 2.666 3 2.666h18c1.662 0 3-1.1887 3-2.666v-10.668c0-1.4773-1.338-2.666-3-2.666h-8.5v-1.041a3 3 0 0 0 1.2344-0.51758l0.74023 0.74024 0.70703-0.70703-0.73828-0.73828a3 3 0 0 0 0.50977-1.2363h1.0469v-1h-1.041a3 3 0 0 0-0.51758-1.2344l0.74023-0.74023-0.70703-0.70703-0.73828 0.73828a3 3 0 0 0-1.2363-0.50977v-1.0469h-1zm-9.5 11h2v2h-2v-2zm3 0h2v2h-2v-2zm3 0h2v2h-2v-2zm3 0h2v2h-2v-2zm3 0h2v2h-2v-2zm3 0h2v2h-2v-2zm3 0h2v2h-2v-2zm-18 3h2v2h-2v-2zm3 0h2v2h-2v-2zm3 0h2v2h-2v-2zm3 0h2v2h-2v-2zm3 0h2v2h-2v-2zm3 0h2v2h-2v-2zm3 0h2v2h-2v-2zm-18 3h2v2h-2v-2zm4 0h12v2h-12v-2zm14 0h2v2h-2v-2z" fill="currentColor"/>
 </g>
 <g id="input-keyboard-battery">
  <rect x="7" y="-39" width="32" height="32" opacity="0"/>
  <path class="ColorScheme-Text" d="m24-35-4 5h2v3l4-5h-2v-3zm-2 8h-8c-1.662 0-3 1.1887-3 2.666v10.668c0 1.4773 1.338 2.666 3 2.666h18c1.662 0 3-1.1887 3-2.666v-10.668c0-1.4773-1.338-2.666-3-2.666h-10zm-9 3h2v2h-2v-2zm3 0h2v2h-2v-2zm3 0h2v2h-2v-2zm3 0h2v2h-2v-2zm3 0h2v2h-2v-2zm3 0h2v2h-2v-2zm3 0h2v2h-2v-2zm-18 3h2v2h-2v-2zm3 0h2v2h-2v-2zm3 0h2v2h-2v-2zm3 0h2v2h-2v-2zm3 0h2v2h-2v-2zm3 0h2v2h-2v-2zm3 0h2v2h-2v-2zm-18 3h2v2h-2v-2zm4 0h12v2h-12v-2zm14 0h2v2h-2v-2z" fill="currentColor"/>
 </g>
 <g id="input-caps-on" transform="translate(-4.4746 24.144)">
  <rect width="22" height="22" opacity=".001"/>
  <g transform="matrix(.99992 0 0 1 .00056617 1.4288e-8)">
   <path class="ColorScheme-Text" d="m3.0004 16.203v0.547c0 1.212 1.0381 2.25 2.25 2.25h11.5c1.212 0 2.25-1.038 2.25-2.25v-0.547c-0.532 0.485-1.225 0.797-2 0.797h-12c-0.7746 0-1.4684-0.312-2-0.797zm8.0792-9.9061-1.0796 3.9921h2.1796zm-1.1808-1.2969h2.3146l2.91 9h-1.91l-0.609-2h-3.0767l-0.6171 2h-1.9102zm-3.8984-2c-1.0193-1.709e-4 -1.8757 0.76621-1.9883 1.7793l-1 8.9997c-0.13161 1.185 0.79606 2.2212 1.9883 2.221h12c1.1921 1.4e-5 2.1196-1.0362 1.988-2.221l-1-8.9997c-0.11256-1.013-0.96879-1.7793-1.988-1.7793z" fill="currentColor"/>
  </g>
 </g>
 <g id="22-22-input-keyboard" transform="matrix(3.7795 0 0 3.7795 -147.11 -144.19)">
  <rect x="31.485" y="53.848" width="5.8208" height="5.8208" opacity="0" stroke-width=".1791"/>
  <path transform="scale(.26458)" d="m123 207.52c-1.108 0-2 0.892-2 2v10c0 1.108 0.892 2 2 2h14c1.108 0 2-0.892 2-2v-10c0-1.108-0.892-2-2-2zm1 2c0.554 0 1 0.446 1 1s-0.446 1-1 1-1-0.446-1-1 0.446-1 1-1zm3 0c0.554 0 1 0.446 1 1s-0.446 1-1 1-1-0.446-1-1 0.446-1 1-1zm3 0c0.554 0 1 0.446 1 1s-0.446 1-1 1-1-0.446-1-1 0.446-1 1-1zm3 0c0.554 0 1 0.446 1 1s-0.446 1-1 1-1-0.446-1-1 0.446-1 1-1zm3 0c0.554 0 1 0.446 1 1s-0.446 1-1 1-1-0.446-1-1 0.446-1 1-1zm-12 3c0.554 0 1 0.446 1 1s-0.446 1-1 1-1-0.446-1-1 0.446-1 1-1zm3 0c0.554 0 1 0.446 1 1s-0.446 1-1 1-1-0.446-1-1 0.446-1 1-1zm3 0c0.554 0 1 0.446 1 1s-0.446 1-1 1-1-0.446-1-1 0.446-1 1-1zm3 0c0.554 0 1 0.446 1 1s-0.446 1-1 1-1-0.446-1-1 0.446-1 1-1zm3 0c0.554 0 1 0.446 1 1s-0.446 1-1 1-1-0.446-1-1 0.446-1 1-1zm-10 4h8c0.554 0 1 0.446 1 1s-0.446 1-1 1h-8c-0.554 0-1-0.446-1-1s0.446-1 1-1z" fill="#dedede"/>
 </g>
 <g id="input-keyboard" transform="translate(-28.114 59.328)" stroke-linecap="round" stroke-linejoin="round">
  <rect x="30" y="-5" width="32" height="32" fill="none" stroke-width="1.8286"/>
  <path d="m34 3c-1.108 0-2 0.892-2 2v12c0 1.108 0.892 2 2 2h24c1.108 0 2-0.892 2-2v-12c0-1.108-0.892-2-2-2zm1.4785 3h1.043c0.2649 0 0.47852 0.21361 0.47852 0.47852v1.043c0 0.2649-0.21361 0.47852-0.47852 0.47852h-1.043c-0.2649 0-0.47852-0.21361-0.47852-0.47852v-1.043c0-0.2649 0.21361-0.47852 0.47852-0.47852zm4 0h1.043c0.2649 0 0.47852 0.21361 0.47852 0.47852v1.043c0 0.2649-0.21361 0.47852-0.47852 0.47852h-1.043c-0.2649 0-0.47852-0.21361-0.47852-0.47852v-1.043c0-0.2649 0.21361-0.47852 0.47852-0.47852zm4 0h1.043c0.2649 0 0.47852 0.21361 0.47852 0.47852v1.043c0 0.2649-0.21361 0.47852-0.47852 0.47852h-1.043c-0.2649 0-0.47852-0.21361-0.47852-0.47852v-1.043c0-0.2649 0.21361-0.47852 0.47852-0.47852zm4 0h1.043c0.2649 0 0.47852 0.21361 0.47852 0.47852v1.043c0 0.2649-0.21361 0.47852-0.47852 0.47852h-1.043c-0.2649 0-0.47852-0.21361-0.47852-0.47852v-1.043c0-0.2649 0.21361-0.47852 0.47852-0.47852zm4 0h1.043c0.2649 0 0.47852 0.21361 0.47852 0.47852v1.043c0 0.2649-0.21361 0.47852-0.47852 0.47852h-1.043c-0.2649 0-0.47852-0.21361-0.47852-0.47852v-1.043c0-0.2649 0.21361-0.47852 0.47852-0.47852zm4 0h1.043c0.2649 0 0.47852 0.21361 0.47852 0.47852v1.043c0 0.2649-0.21361 0.47852-0.47852 0.47852h-1.043c-0.2649 0-0.47852-0.21361-0.47852-0.47852v-1.043c0-0.2649 0.21361-0.47852 0.47852-0.47852zm-20 4h1.043c0.2649 0 0.47852 0.21361 0.47852 0.47852v1.043c0 0.2649-0.21361 0.47852-0.47852 0.47852h-1.043c-0.2649 0-0.47852-0.21361-0.47852-0.47852v-1.043c0-0.2649 0.21361-0.47852 0.47852-0.47852zm4 0h1.043c0.2649 0 0.47852 0.21361 0.47852 0.47852v1.043c0 0.2649-0.21361 0.47852-0.47852 0.47852h-1.043c-0.2649 0-0.47852-0.21361-0.47852-0.47852v-1.043c0-0.2649 0.21361-0.47852 0.47852-0.47852zm4 0h1.043c0.2649 0 0.47852 0.21361 0.47852 0.47852v1.043c0 0.2649-0.21361 0.47852-0.47852 0.47852h-1.043c-0.2649 0-0.47852-0.21361-0.47852-0.47852v-1.043c0-0.2649 0.21361-0.47852 0.47852-0.47852zm4 0h1.043c0.2649 0 0.47852 0.21361 0.47852 0.47852v1.043c0 0.2649-0.21361 0.47852-0.47852 0.47852h-1.043c-0.2649 0-0.47852-0.21361-0.47852-0.47852v-1.043c0-0.2649 0.21361-0.47852 0.47852-0.47852zm4 0h1.043c0.2649 0 0.47852 0.21361 0.47852 0.47852v1.043c0 0.2649-0.21361 0.47852-0.47852 0.47852h-1.043c-0.2649 0-0.47852-0.21361-0.47852-0.47852v-1.043c0-0.2649 0.21361-0.47852 0.47852-0.47852zm4 0h1.043c0.2649 0 0.47852 0.21361 0.47852 0.47852v1.043c0 0.2649-0.21361 0.47852-0.47852 0.47852h-1.043c-0.2649 0-0.47852-0.21361-0.47852-0.47852v-1.043c0-0.2649 0.21361-0.47852 0.47852-0.47852zm-17.861 4h16.766c0.34208 0 0.61719 0.27511 0.61719 0.61719v0.76562c0 0.34208-0.27511 0.61719-0.61719 0.61719h-16.766c-0.34208 0-0.61719-0.27511-0.61719-0.61719v-0.76562c0-0.34208 0.27511-0.61719 0.61719-0.61719z" fill="#dedede" stroke-width="2.1112"/>
 </g>
</svg>

<svg xmlns="http://www.w3.org/2000/svg" xmlns:osb="http://www.openswatchbook.org/uri/2009/osb" id="svg" width="100%" height="100%" version="1.1" viewBox="0 0 22 22">
 <defs id="defs7386">
  <style id="current-color-scheme" type="text/css">
   .ColorScheme-Text { color:#dedede; } .ColorScheme-Highlight { color:#5294e2; } .ColorScheme-ButtonBackground { color:#dedede; }
  </style>
 </defs>
 <rect id="rect7291" width="22" height="22" x="0" y="0" rx="0" ry="0" style="opacity:0.01000001;fill:#eff0f1;fill-opacity:0.00392157;stroke:none"/>
 <g id="input-mouse-battery" transform="translate(28,0)">
  <rect id="rect4524" width="22" height="22" x="0" y="0" style="opacity:0;fill:#0000ff;fill-opacity:1;stroke:none;stroke-opacity:1"/>
  <path id="path4260" d="M 10,3 C 7.1891901,3.2515385 5,5.6018325 5,8.484375 l 0,0.5 5,0 L 10,3 Z m 1,0 0,5.984375 5,0 0,-0.5 C 16,5.6018325 13.81081,3.2515385 11,3 Z M 5,9.9863281 5,13.492188 C 5,16.543658 7.4530001,19 10.5,19 13.547,19 16,16.543658 16,13.492188 l 0,-3.5058599 -5,0 -1,0 -5,0 z M 11,11 l 0,3 2,0 -3,4 0,-3 -2,0 3,-4 z" style="display:inline;opacity:1;fill:currentColor;fill-opacity:1;stroke:none;stroke-width:2;stroke-miterlimit:4;stroke-dasharray:none;stroke-opacity:1;enable-background:new" class="ColorScheme-Text"/>
 </g>
 <g id="22-22-input-keyboard-battery">
  <rect id="rect4512" width="22" height="22" x="0" y="0" style="opacity:0;fill:#0000ff;fill-opacity:1;stroke:none;stroke-opacity:1"/>
  <path id="rect4379" d="m 5,4.9999998 c -1.108,0 -2,0.892 -2,2.0000001 L 3,15 c 0,1.108 0.892,2 2,2 l 12,0 c 1.108,0 2,-0.892 2,-2 L 19,6.9999999 C 19,5.8919998 18.108,4.9999998 17,4.9999998 l -12,0 z m -1,2.0000001 2,0 0,2 -2,0 0,-2 z m 3,0 2,0 0,2 -2,0 0,-2 z m 3,0 2,0 0,2 -2,0 0,-2 z m 3,0 2,0 0,2 -2,0 0,-2 z m 3,0 2,0 0,2 -2,0 L 16,12 l 2,0 -3,4 0,-3 -2,0 3,-4.0000001 0,-2 z m -12,3 2,0 L 6,12 4,12 4,9.9999999 Z m 3,0 2,0 L 9,12 7,12 7,9.9999999 Z m 3,0 2,0 L 12,12 10,12 10,9.9999999 Z M 5,13 l 7,0 0,2 -7,0 0,-2 z" style="opacity:1;fill:currentColor;fill-opacity:1;stroke:none;stroke-opacity:1" class="ColorScheme-Text"/>
 </g>
 <g id="22-22-input-keyboard-brightness" transform="translate(-28,0)">
  <rect id="rect4522" width="22" height="22" x="0" y="0" style="opacity:0;fill:#0000ff;fill-opacity:1;stroke:none;stroke-opacity:1"/>
  <path id="path4501" d="M 5,5 C 3.892,5 3,5.892 3,7 l 0,8 c 0,1.108 0.892,2 2,2 l 12,0 c 1.108,0 2,-0.892 2,-2 L 19,7 C 19,5.892 18.108,5 17,5 Z M 4,7 6,7 6,9 4,9 Z M 7,7 9,7 9,9 7,9 Z m 3,0 2,0 0,2 -2,0 z m 3,0 2,0 0,2 -2,0 z m 3,0 2,0 0,2 -2,0 z m -12,3 2,0 0,2 -2,0 z m 3,0 2,0 0,2 -2,0 z m 3,0 2,0 0,2 -2,0 z m 5.5,0 C 16.880712,10 18,11.119288 18,12.5 18,13.880712 16.880712,15 15.5,15 14.119288,15 13,13.880712 13,12.5 13,11.119288 14.119288,10 15.5,10 Z m -0.5,1 0,3 c 0.828427,0 2,0 2,-1.5 C 17,11 15.828427,11 15,11 Z m -10,2 7,0 0,2 -7,0 z" style="opacity:1;fill:currentColor;fill-opacity:1;stroke:none;stroke-opacity:1" class="ColorScheme-Text"/>
 </g>
 <g id="input-keyboard-brightness">
  <rect id="rect4150" width="32" height="32" x="-28" y="-39" style="opacity:0;fill:#0000ff;fill-opacity:1;stroke:none;stroke-opacity:1"/>
  <path id="path4160" d="M -12.5 -35 L -12.5 -33.958984 A 3 3 0 0 0 -13.734375 -33.441406 L -14.474609 -34.181641 L -15.181641 -33.474609 L -14.443359 -32.736328 A 3 3 0 0 0 -14.953125 -31.5 L -16 -31.5 L -16 -30.5 L -14.958984 -30.5 A 3 3 0 0 0 -14.441406 -29.265625 L -15.181641 -28.525391 L -14.474609 -27.818359 L -13.736328 -28.556641 A 3 3 0 0 0 -12.5 -28.046875 L -12.5 -27 L -21 -27 C -22.662001 -27 -24 -25.811317 -24 -24.333984 L -24 -13.666016 C -24 -12.188682 -22.662001 -11 -21 -11 L -3 -11 C -1.3380001 -11 0 -12.188682 0 -13.666016 L 0 -24.333984 C 0 -25.811317 -1.3380001 -27 -3 -27 L -11.5 -27 L -11.5 -28.041016 A 3 3 0 0 0 -10.265625 -28.558594 L -9.5253906 -27.818359 L -8.8183594 -28.525391 L -9.5566406 -29.263672 A 3 3 0 0 0 -9.046875 -30.5 L -8 -30.5 L -8 -31.5 L -9.0410156 -31.5 A 3 3 0 0 0 -9.5585938 -32.734375 L -8.8183594 -33.474609 L -9.5253906 -34.181641 L -10.263672 -33.443359 A 3 3 0 0 0 -11.5 -33.953125 L -11.5 -35 L -12.5 -35 z M -22 -24 L -20 -24 L -20 -22 L -22 -22 L -22 -24 z M -19 -24 L -17 -24 L -17 -22 L -19 -22 L -19 -24 z M -16 -24 L -14 -24 L -14 -22 L -16 -22 L -16 -24 z M -13 -24 L -11 -24 L -11 -22 L -13 -22 L -13 -24 z M -10 -24 L -8 -24 L -8 -22 L -10 -22 L -10 -24 z M -7 -24 L -5 -24 L -5 -22 L -7 -22 L -7 -24 z M -4 -24 L -2 -24 L -2 -22 L -4 -22 L -4 -24 z M -22 -21 L -20 -21 L -20 -19 L -22 -19 L -22 -21 z M -19 -21 L -17 -21 L -17 -19 L -19 -19 L -19 -21 z M -16 -21 L -14 -21 L -14 -19 L -16 -19 L -16 -21 z M -13 -21 L -11 -21 L -11 -19 L -13 -19 L -13 -21 z M -10 -21 L -8 -21 L -8 -19 L -10 -19 L -10 -21 z M -7 -21 L -5 -21 L -5 -19 L -7 -19 L -7 -21 z M -4 -21 L -2 -21 L -2 -19 L -4 -19 L -4 -21 z M -22 -18 L -20 -18 L -20 -16 L -22 -16 L -22 -18 z M -18 -18 L -6 -18 L -6 -16 L -18 -16 L -18 -18 z M -4 -18 L -2 -18 L -2 -16 L -4 -16 L -4 -18 z" style="opacity:1;fill:currentColor;fill-opacity:1;stroke:none;stroke-opacity:1" class="ColorScheme-Text"/>
 </g>
 <g id="input-keyboard-battery">
  <rect id="rect4385" width="32" height="32" x="7" y="-39" style="opacity:0;fill:#0000ff;fill-opacity:1;stroke:none;stroke-opacity:1"/>
  <path id="path4387" d="M 24 -35 L 20 -30 L 22 -30 L 22 -27 L 26 -32 L 24 -32 L 24 -35 z M 22 -27 L 14 -27 C 12.337999 -27 11 -25.811317 11 -24.333984 L 11 -13.666016 C 11 -12.188682 12.337999 -11 14 -11 L 32 -11 C 33.662 -11 35 -12.188682 35 -13.666016 L 35 -24.333984 C 35 -25.811317 33.662 -27 32 -27 L 22 -27 z M 13 -24 L 15 -24 L 15 -22 L 13 -22 L 13 -24 z M 16 -24 L 18 -24 L 18 -22 L 16 -22 L 16 -24 z M 19 -24 L 21 -24 L 21 -22 L 19 -22 L 19 -24 z M 22 -24 L 24 -24 L 24 -22 L 22 -22 L 22 -24 z M 25 -24 L 27 -24 L 27 -22 L 25 -22 L 25 -24 z M 28 -24 L 30 -24 L 30 -22 L 28 -22 L 28 -24 z M 31 -24 L 33 -24 L 33 -22 L 31 -22 L 31 -24 z M 13 -21 L 15 -21 L 15 -19 L 13 -19 L 13 -21 z M 16 -21 L 18 -21 L 18 -19 L 16 -19 L 16 -21 z M 19 -21 L 21 -21 L 21 -19 L 19 -19 L 19 -21 z M 22 -21 L 24 -21 L 24 -19 L 22 -19 L 22 -21 z M 25 -21 L 27 -21 L 27 -19 L 25 -19 L 25 -21 z M 28 -21 L 30 -21 L 30 -19 L 28 -19 L 28 -21 z M 31 -21 L 33 -21 L 33 -19 L 31 -19 L 31 -21 z M 13 -18 L 15 -18 L 15 -16 L 13 -16 L 13 -18 z M 17 -18 L 29 -18 L 29 -16 L 17 -16 L 17 -18 z M 31 -18 L 33 -18 L 33 -16 L 31 -16 L 31 -18 z" style="opacity:1;fill:currentColor;fill-opacity:1;stroke:none;stroke-opacity:1" class="ColorScheme-Text"/>
 </g>
 <g id="input-keyboard" transform="translate(-26.474576,24.144068)">
  <rect id="rect856" width="22" height="22" x="0" y="0" style="opacity:0.00100002;fill:#000000;fill-opacity:1;stroke:none;stroke-width:9.13128376;stroke-linecap:round;stroke-linejoin:round;stroke-miterlimit:4;stroke-dasharray:none;stroke-opacity:1"/>
  <path id="path5" d="M 5,5 C 3.892,5 3,5.892 3,7 v 8 c 0,1.108 0.892,2 2,2 h 11 c 1.108,0 2,-0.892 2,-2 V 7 C 18,5.892 17.108,5 16,5 Z m 0.25,2 h 1.5 C 6.8885,7 7,7.1115 7,7.25 v 1.5 C 7,8.8885 6.8885,9 6.75,9 H 5.25 C 5.1115,9 5,8.8885 5,8.75 V 7.25 C 5,7.1115 5.1115,7 5.25,7 Z m 3,0 h 1.5 C 9.8885,7 10,7.1115 10,7.25 v 1.5 C 10,8.8885 9.8885,9 9.75,9 H 8.25 C 8.1115,9 8,8.8885 8,8.75 V 7.25 C 8,7.1115 8.1115,7 8.25,7 Z m 3,0 h 1.5 C 12.889,7 13,7.1115 13,7.25 v 1.5 C 13,8.8885 12.889,9 12.75,9 h -1.5 C 11.111,9 11,8.8885 11,8.75 V 7.25 C 11,7.1115 11.111,7 11.25,7 Z m 3,0 h 1.5 C 15.889,7 16,7.1115 16,7.25 v 1.5 C 16,8.8885 15.889,9 15.75,9 h -1.5 C 14.111,9 14,8.8885 14,8.75 V 7.25 C 14,7.1115 14.111,7 14.25,7 Z m -9,3 h 1.5 C 6.8885,10 7,10.111 7,10.25 v 1.5 C 7,11.889 6.8885,12 6.75,12 H 5.25 C 5.1115,12 5,11.889 5,11.75 v -1.5 C 5,10.111 5.1115,10 5.25,10 Z m 3,0 h 1.5 C 9.8885,10 10,10.111 10,10.25 v 1.5 C 10,11.889 9.8885,12 9.75,12 H 8.25 C 8.1115,12 8,11.889 8,11.75 v -1.5 C 8,10.111 8.1115,10 8.25,10 Z m 3,0 h 1.5 c 0.139,0 0.25,0.111 0.25,0.25 v 1.5 C 13,11.889 12.889,12 12.75,12 h -1.5 C 11.111,12 11,11.889 11,11.75 v -1.5 C 11,10.111 11.111,10 11.25,10 Z m 3,0 h 1.5 c 0.139,0 0.25,0.111 0.25,0.25 v 1.5 C 16,11.889 15.889,12 15.75,12 h -1.5 C 14.111,12 14,11.889 14,11.75 v -1.5 C 14,10.111 14.111,10 14.25,10 Z m -7,3 h 6.5 c 0.139,0 0.25,0.111 0.25,0.25 v 1.5 C 14,14.889 13.889,15 13.75,15 H 7.25 C 7.1115,15 7,14.889 7,14.75 v -1.5 C 7,13.111 7.1115,13 7.25,13 Z" style="fill:currentColor" class="ColorScheme-Text"/>
 </g>
 <g id="input-caps-on" transform="translate(-4.4745763,24.144068)">
  <rect id="rect862" width="22" height="22" x="0" y="0" style="opacity:0.00100002;fill:#000000;fill-opacity:1;stroke:none;stroke-width:9.90904617;stroke-linecap:round;stroke-linejoin:round;stroke-miterlimit:4;stroke-dasharray:none;stroke-opacity:1"/>
  <g id="g869" transform="matrix(0.99992361,0,0,1,5.6617073e-4,1.4288396e-8)">
   <path style="fill:currentColor" class="ColorScheme-Text" id="path867" d="m 3.0004243,16.203 v 0.547 c 0,1.212 1.0381,2.25 2.25,2.25 H 16.750424 c 1.212,0 2.25,-1.038 2.25,-2.25 v -0.547 c -0.532,0.485 -1.225,0.797 -2,0.797 H 5.0004243 c -0.7746,0 -1.4684,-0.312 -2,-0.797 z M 11.0796,6.2969 10,10.289 h 2.1796 z M 9.898824,5 h 2.3146 l 2.91,9 h -1.91 l -0.609,-2 H 9.5277243 l -0.6171,2 h -1.9102 z M 6.0004243,3 c -1.0193228,-1.709e-4 -1.8757271,0.7662125 -1.9883,1.7793 l -1,8.9997 c -0.1316098,1.184951 0.7960628,2.221193 1.9883,2.221 H 17.000424 c 1.192117,1.4e-5 2.119597,-1.036168 1.988,-2.221 l -1,-8.9997 C 17.875864,3.7663264 17.019632,2.999982 16.000424,3 Z"/>
  </g>
 </g>
</svg>
